X:1
T:Title
%%score [ 1 2 3 4 ]
L:1/8
Q:1/4=137
M:6/4
K:C
V:1 treble nm="S"
V:2 treble nm="A"
V:3 treble-8 nm="T"
V:4 bass nm="B"
V:1
!mf! c4 A2 d4 c2- | c2 d2 e2 d2 c2 d2 | f6 e4 c2 | d6 c4 z2 |!p! (d4 c2 A6- | A2 G2 F2 G2 A2 _B2 | %6
w: Lo- * * *||* * va|Her- ren,|lo- * *||
 c6 A4) F2 | G6 F4 z2 |!f! (c4 A2 d4 c2- | c2 d2 _e2 d2 c2) _B2 | (c6 _B4) A2 | G6- G2 F2 G2 | %12
w: * * va|Her- ren!|Lo- * * *|* * * * * va|Her- * ren|Gud, _ _ min|
 F6- F4 z2 |!p!!<(! F4 G2 A4 B2!<)! |!>(! c4 G2 G6!>)! |!<(! A4 B2 c4!<)! d2 |!>(! e4 B2 B6!>)! | %17
w: själ! _|Lo- va Her- ren|Gud, min själ!|Vad Han gör, är|gott och väl.|
"^cresc.      -        -      -          -      -        -       -" (c2 B2) A2 f4 d2 | %18
w: Lo- * va Her- ren,|
[M:9/4]!f! (d2 c2) B2 g4 e2 (a4 g2- |[M:6/4] g4 f2- f2 e2) d2 | g6 e4 c2 | (d6 G4) c2 | %22
w: lo- * va Ho- nom al- *|* * * * lan|tid, lo- va|Ho- * nom|
 B4 A2 (G4 F2) | (E2 D2) A2 G4 C2 |!>(! F6 D6!>)! | C6- C4 z2 |!mf! (c4 A2 d4 c2- | %27
w: al- lan tid, _|ty _ Han nå- dig|är och|blid! _|Zi- * * *|
 c2 d2 e2 d2 c2) d2 | (f6 e4 c2 | d6 c4) B2 | A6- A4 G2 | A6- A4 z2 |!p!!<(! D4 E2 F4 G2!<)! | %33
w: * * * * * ons|Gud _ _|_ _ är|hög _ och|stor! _|Sa- lig den, på|
!>(! A4 E2!>)! E6 |!<(! F4 G2 (G2 A2) B2!<)! | c4 G2 G6 | (A2 G2) F2 (d6- | d2 g2 f2 e2 d2) c2 | %38
w: Ho- nom tror,|sa- lig den, * på|Ho- nom tror!|Lo- * va Her-|* * * * * ren,|
 (c2 _B2) A2 (f6- |!f! f2 a2 g2 f2 e2) d2 | (f6 d4) _B2 | (c6 A4) E2 | G6 F4 E2 |!mf! D6- D4 z2 | %44
w: lo- * va Her-|* * * * * ren,|lo- * va|Her- * ren,|gam- mal och|ung! _|
 (c4 A2 d4 c2- | c2 d2 _e2 d2 c2 _B2 | c6 _B4) A2 | G6- G4 F2 | G6- G4 F2 | F6- F4 z2 |] %50
w: Glad- * * *||* * lig|Hal- * le-|lu- * ja|sjung! _|
V:2
!mf! (c4 A2 d4 c2- | c2 d2 e2 d2 c2 d2 | f6 e4) c2 | d6 c4 z2 |!p! (A4 G2 F6- | F2 E2 D2 E2 F2 G2 | %6
w: Lo- * * *||* * va|Her- ren,|lo- * *||
 F2 G2 F2 E4) F2 | (F2 D2 E2) F4 z2 |!f! (c4 A2 d4 c2- | c2 d2 _e2 d2 c2) _B2 | (G6 G4) F2 | %11
w: * * * * va|Her- * * ren!|Lo- * * *|* * * * * va|Her- * ren|
 (G2 F2 _E2 D4) =E2 | F6- F4 z2 |!p! F4 E2 F4 G2 | E4 E2 G6 | F4 G2 A4 B2 | (B2 A2) G2 G6 | %17
w: Gud, _ _ _ min|själ! _|Lo- va Her- ren|Gud, min själ!|Vad Han gör, är|gott _ och väl.|
 (A2 G2) F2 A4 A2 |[M:9/4]!f! (B2 A2) G2 B4 B2 (A4 B2- |[M:6/4] B2 c2 A2 G4) A2 | G6 (G2 F2) E2 | %21
w: Lo- * va Her- ren,|lo- * va Ho- nom al- *|* * * * lan|tid, lo- * va|
 (F2 G2 F2 E2 D2) C2 | D4 E2 D6 | C4 B,2 C4 C2 | C6 (C4 B,2) | C6- C4 z2 |!mf! (c4 A2 d4 c2- | %27
w: Ho- * * * * nom|al- lan tid,|ty Han nå- dig|är och _|blid! _|Zi- * * *|
 c2 d2 e2 d2 c2) d2 | (f6 e4 c2 | A6 A4) G2 | (A2 G2 F2 E4) E2 | ^C6- C4 z2 |!p! D4 C2 D4 E2 | %33
w: * * * * * ons|Gud _ _|_ _ är|hög _ _ _ och|stor! _|Sa- lig den, på|
 (F2 E2) D2 (C2 _B,2 C2) | D4 E2 F4 G2 | E4 E2 G6 | (F2 E2) D2 (F6 | G6- G4) G2 | (A2 G2) F2 (A6 | %39
w: Ho- * nom tror, * *|sa- lig den, på|Ho- nom tror!|Lo- * va Her-|* * ren,|lo- * va Her-|
!f! _B6- B4) B2 | (A2 G2 F2- F4) G2 | (A2 G2 F2 E4) F2 | D6 C4 C2 |!mf! A,6- A,4 z2 | %44
w: * * ren,|lo- * * * va|Her- * * * ren,|gam- mal och|ung! _|
 (c4 A2 d4 c2- | c2 d2 _e2 d2 c2 _B2 | G6- G4) F2 | (G2 F2 _E2 D4) D2 | D6 E6 | F6- F4 z2 |] %50
w: Glad- * * *||* * lig|Hal- * * * le-|lu- ja|sjung! _|
V:3
!mf! (c4 A2 d4 c2- | c2 d2 e2 d2 c2 d2 | f6 e4) c2 | d6 c4 z2 |!p! (f4 e2- e4 d2 | c6 _B4 d2 | %6
w: Lo- * * *||* * va|Her- ren,|lo- * * *||
 c6- c2 _B2) A2 | c6 A4 z2 |!f! (c4 A2 d4 c2- | c2 d2 _e2 d2 c2) _B2 | (_e6 d4) d2 | %11
w: * * * va|Her- ren!|Lo- * * *|* * * * * va|Her- * ren|
 (_B4 c2 A4) c2 | A6- A4 z2 |!p! A4 _B2 c4 d2 | c6 (B2 e2 d2) | c4 d2 e4 f2 | e4 d2 (d2 c2 B2) | %17
w: Gud, _ _ min|själ! _|Lo- va Her- ren|Gud, själ! _ _|Vad Han gör, är|gott och väl. _ _|
 (A2 B2) c2 (c2 d2) c2 |[M:9/4]!f! (B2 c2) d2 (d2 e2) c2 (c2 f2 d2- |[M:6/4] d4 c2 B4) A2 | %20
w: Lo- * va Her- * ren,|lo- * va Ho- * nom al- * *|* * * lan|
 (B2 d2 c2) B4 c2 | (B6 B4) G2 | G4 G2 (G4 A2) | (G2 A2) F2 G4 A2 | A6 G6 | C6- C4 z2 | %26
w: tid, * * lo- va|Ho- * nom|al- lan tid, _|ty _ Han nå- dig|är och|blid! _|
!mf! (c4 A2 d4 c2- | c2 d2 e2 d2 c2) d2 | (f6 e4 c2 | f6 e4) e2 | (c4 d2 B4) B2 | A6- A4 z2 | %32
w: Zi- * * *|* * * * * ons|Gud _ _|_ _ är|hög _ _ och|stor! _|
!p! F4 G2 A4 _B2 | c4 _B2 (A2 G2 A2) | A4 _B2 c4 d2 | c4 c2 (B2 e2 d2) | (c2 _B2) c2 (B2 c2 d2 | %37
w: Sa- lig den, på|Ho- nom tror, * *|sa- lig den, på|Ho- nom tror! * *|Lo- * va Her- * *|
 e4 d2 c2 d2) e2 | (e2 d2) e2 (d2 e2 f2 |!f! g2 f2 g2 a2 g2) f2 | (e2 d2 c2 _B4) d2 | %41
w: * * * * ren,|lo- * va Her- * *|* * * * * ren,|lo- * * * va|
 (c6- c2 _B2) A2 | _B6 A4 (G2- |!mf! G2 ^F2 E2) F4 z2 | (c4 A2 d4 c2- | c2 d2 _e2 d2 c2 _B2 | %46
w: Her- * * ren,|gam- mal och|_ _ _ ung!|Glad- * * *||
 _e6 d4) d2 | (_B4 c2 A4) A2 | B6 c6 | A6- A4 z2 |] %50
w: * * lig|Hal- * * le-|lu- ja|sjung! _|
V:4
!mf! (C,4 A,,2 D,4 C,2- | C,2 D,2 E,2 D,2 C,2 D,2 | F,6 E,4) C,2 | D,6 C,4 z2 | %4
w: Lo- * * *||* * va|Her- ren,|
!p! (D,4 A,2 C4 _B,2 | F,6 D,4 G,,2 | A,,6 C,4) D,2 | C,6 F,4 z2 |!f! (C,4 A,,2 D,4 C,2- | %9
w: lo- * * *||* * va|Her- ren!|Lo- * * *|
 C,2 D,2 _E,2 D,2 C,2) _B,,2 | (C,6 G,4) D,2 | (_E,4 C,2 D,4) C,2 | F,6- F,4 z2 |!p! D,6- D,4 D,2 | %14
w: * * * * * va|Her- * ren|Gud _ _ min|själ! _|Lo- * va|
 (A,2 B,2) A,2 E,6 | (F,6- F,2 E,2) D,2 |"^dim." C,4 F,2 (E,4 G,2) | (F,2 G,2) A,2 D,4 F,2 | %18
w: Her- * ren Gud,|vad _ _ är|gott och väl. _|Lo- * va Her- ren,|
[M:9/4]!f! (G,2 A,2) B,2 E,4 G,2 (F,6 |[M:6/4] E,6 D,2 E,2) F,2 | E,6 G,4 A,2 | (G,6 F,4) E,2 | %22
w: lo- * va Ho- nom al-|* * * lan|tid, lo- va|Ho- * nom|
 D,4 C,2 (B,,4 D,2) | (E,2 F,2) D,2 E,4 A,2 | D,6 (G,4 G,,2) | C,6- C,4 z2 | %26
w: al- lan tid, _|ty _ Han nå- dig|är och _|blid! _|
!mf! (C,4 A,,2 D,4 C,2- | C,2 D,2 E,2 D,2 C,2) D,2 | (F,6 E,4 C,2 | D,6 A,4) E,2 | %30
w: Zi- * * *|* * * * * ons|Gud _ _|_ _ är|
 (F,4 D,2 E,4) E,2 | A,,6- A,,4 z2 |!p! (_B,,6- B,,2 A,,2) G,,2 | F,,4 G,,2 A,,6 | (D,12 | %35
w: hög _ _ och|stor! _|Sa- * * lig|Hon- nom tror,|sa-|
 A,2 B,2) A,2 E,6 | (F,2 G,2) A,2 _B,6- |"^dim." B,6- B,4 _B,2 | (A,2 _B,2) C2 D6- |!f! D6- D4 D2 | %40
w: * * lig den.|Lo- * va Her-|* * ren,|lo- * va Her-|* * ren,|
 (C2 _B,2 A,2 B,2 A,2) G,2 | (E,4 D,2 C,4) D,2 | G,,6 (A,,2 _B,,2) C,2 |!mf! D,6- D,4 z2 | %44
w: lo- * * * * va|Her- * * ren,|gam- mal * och|ung! _|
 (C,4 A,,2 D,4 C,2- | C,2 D,2 _E,2 D,2 D,2 _C,2 | C,6 G,4) D,2 | (_E,4 C,2 D,4) D,2 | G,,6 C,6 | %49
w: Glad- * * *||* * lig|Hal- * * le-|lu- ja|
 F,,6- F,,4 z2 |] %50
w: sjung! _|

